X:914
T:Higgin's hornpipe
C:anon.
O:Ireland
B:Francis O'Neill: "The Dance Music of Ireland" (1907) no. 914
R:Hornpipe
M:C|
L:1/8
K:D
F>E|D>FA>F D>GB>G|F>Ad>e f>dA>F|F>A (3def g>fe>d|(3efd (3cdB (3ABG (3FGE|
D>FA>F D>GB>G|F>Ad>e f>dA>G|F>Ad>g f>ed>c|d2f2d2::c>d|e>A (3AAA f>A (3AAA|g>A (3AAA f>A (3AAA|
e>Af>A g>Af>A|(3efd (3cdB (3ABG (3FGE|D>FA>F E>GB>G|F>Ad>e f>DA>G|F>Ad>g f>ed>c|d2f2d2:|
